tools/download-figma-icons/icons/solid/battery-lifetime.svg

<svg width="24" height="24" viewBox="0 0 24 24" fill="none" xmlns="http://www.w3.org/2000/svg">
<path fill-rule="evenodd" clip-rule="evenodd" d="M16.5 12.8025C16.5 13.1925 16.1925 13.5 15.8025 13.5H8.1975C7.8075 13.5 7.5 13.1925 7.5 12.8025V11.9467C7.5 11.5575 7.8075 11.25 8.1975 11.25H15.8025C16.1925 11.25 16.5 11.5575 16.5 11.9467V12.8025ZM16.5 16.5525C16.5 16.9425 16.1925 17.25 15.8025 17.25H8.1975C7.8075 17.25 7.5 16.9425 7.5 16.5525V15.6967C7.5 15.3075 7.8075 15 8.1975 15H15.8025C16.1925 15 16.5 15.3075 16.5 15.6967V16.5525ZM16.5 20.3025C16.5 20.6925 16.1925 21 15.8025 21H8.1975C7.8075 21 7.5 20.6925 7.5 20.3025V19.4468C7.5 19.0575 7.8075 18.75 8.1975 18.75H15.8025C16.1925 18.75 16.5 19.0575 16.5 19.4468V20.3025ZM17.625 2.25H16.5V1.125C16.5 0.5025 15.9975 0 15.375 0H8.625C8.0025 0 7.5 0.5025 7.5 1.125V2.25H6.375C5.34 2.25 4.5 3.09 4.5 4.125V22.125C4.5 23.16 5.34 24 6.375 24H17.625C18.66 24 19.5 23.16 19.5 22.125V4.125C19.5 3.09 18.66 2.25 17.625 2.25Z" fill="black"/>
</svg>

<svg width="24" height="24" viewBox="0 0 24 24" fill="none" xmlns="http://www.w3.org/2000/svg"><path fill-rule="evenodd" clip-rule="evenodd" d="M16.5 12.803c0 .39-.308.697-.697.697H8.197a.691.691 0 0 1-.697-.697v-.856c0-.39.308-.697.697-.697h7.606a.69.69 0 0 1 .697.697v.856Zm0 3.75c0 .39-.308.697-.697.697H8.197a.691.691 0 0 1-.697-.698v-.855c0-.39.308-.697.697-.697h7.606a.69.69 0 0 1 .697.697v.855Zm0 3.75c0 .39-.308.697-.697.697H8.197a.691.691 0 0 1-.697-.698v-.855c0-.39.308-.697.697-.697h7.606c.39 0 .697.308.697.697v.855ZM17.625 2.25H16.5V1.125C16.5.502 15.998 0 15.375 0h-6.75C8.002 0 7.5.502 7.5 1.125V2.25H6.375C5.34 2.25 4.5 3.09 4.5 4.125v18C4.5 23.16 5.34 24 6.375 24h11.25c1.035 0 1.875-.84 1.875-1.875v-18c0-1.035-.84-1.875-1.875-1.875Z" fill="currentColor"/></svg>
